bundles/org.openhab.binding.worxlandroid/src/main/resources/icon/charging-on.svg

<?xml version="1.0" encoding="utf-8"?>
<svg version="1.1" id="Layer_1" x="0px" y="0px" viewBox="0 0 283.46 283.46" style="enable-background:new 0 0 283.46 283.46;" xmlns="http://www.w3.org/2000/svg">
  <style type="text/css">
	.st0{fill:#94AAB2;}
	.st1{fill:#FDF59E;}
	.st2{fill:#728489;}
	.st3{fill:#F8BF33;}
	.st4{fill:#E8E747;}
	.st5{fill:#231F20;}
	.st6{fill:#E74612;}
	.st7{fill:#CCDE65;}
	.st8{fill:#FFFFFF;}
	.st9{fill:#8BC53F;}
	.st10{fill:#DEE0E1;}
	.st11{fill:#A6A8AB;}
	.st12{fill:#808184;}
	.st13{fill:#FE4109;}
	.st14{fill:#AD300E;}
	.st15{fill:#039BE5;}
	.st16{fill:#01579B;}
	.st17{fill:#B666D8;}
	.st18{fill:#651976;}
	.st19{fill:#7F2204;}
	.st20{fill:#929497;}
	.st21{fill:#FFDD15;}
	.st22{fill:#FEBE10;}
</style>
  <path class="st10" d="M 199.7 34.99 L 171.69 34.99 L 171.69 26.62 C 171.69 22.66 168.48 19.46 164.53 19.46 L 118.94 19.46 C 114.98 19.46 111.78 22.67 111.78 26.62 L 111.78 34.99 L 83.77 34.99 C 75.32 34.99 68.46 41.84 68.46 50.3 L 68.46 248.71 C 68.46 257.16 75.31 264.02 83.77 264.02 L 199.7 264.02 C 208.15 264.02 215.01 257.17 215.01 248.71 L 215.01 50.29 C 215 41.84 208.15 34.99 199.7 34.99 Z" transform="matrix(0, 1, -1, 0, 283.475049, 0.005063)"/>
  <path class="st9" d="M 7.964 80.61 L 7.964 187.58 C 7.964 196.03 14.814 202.89 23.274 202.89 L 139.204 202.89 C 147.654 202.89 154.514 196.04 154.514 187.58 L 154.514 80.61 L 7.964 80.61 Z" transform="matrix(0, 1, -1, 0, 222.989002, 60.510998)"/>
  <polygon class="st22" points="154.69 70.732 108.34 147.281 140.4 147.355 127.04 213.663 177.13 135.067 142.3 135.194" style=""/>
</svg>

<svg version="1.1" id="prefix__Layer_1" x="0" y="0" height="32" width="32" viewBox="0 0 283.46 283.46" xmlns="http://www.w3.org/2000/svg">
	<style></style>
	<path
		d="M199.7 34.99h-28.01v-8.37a7.16 7.16 0 00-7.16-7.16h-45.59a7.16 7.16 0 00-7.16 7.16v8.37H83.77c-8.45 0-15.31 6.85-15.31 15.31v198.41c0 8.45 6.85 15.31 15.31 15.31H199.7c8.45 0 15.31-6.85 15.31-15.31V50.29c-.01-8.45-6.86-15.3-15.31-15.3z"
		transform="rotate(90 141.735 141.74)" fill="#dee0e1" />
	<path d="M7.964 80.61v106.97c0 8.45 6.85 15.31 15.31 15.31h115.93c8.45 0 15.31-6.85 15.31-15.31V80.61H7.964z"
		transform="rotate(90 81.239 141.75)" fill="#8bc53f" />
	<path fill="#febe10" d="M154.69 70.732l-46.35 76.549 32.06.074-13.36 66.308 50.09-78.596-34.83.127z" />
</svg>
